X:4675
T:Polska
A:Nrke
C:e. Pelle Pettersson
D:Bl Bergens Borduner (Stake/Karlsson/Fredriksson/Ekedahl) AMCD 727
M:3/4
N:Sleevenotes say it was transcribed from a clarinet-player in the 1800s
O:Sweden
R:Polska
Z:Richard Robinson 
%%TUNEURL: http://www.leeds.ac.uk/music/Info/RRTuneBk/gettune/00000c28.html
%%ID:00000c28
K:A
ce cc c2| cB/c/ dc BA| A/G/F/G/ AE FE|\
ce cc c2| cB/c/ dc BA| G/A/B/c/ B2 A2::
Ac cA B/A/F/A/| GB BG A/G/F/G/|\
Ac cA B/A/F/A/| GB BG A/G/F/G/|\
Ac GA FG/F/   | E/F/G/E/ F2-F2 :|
